X:4
T:Valse des montagnes
B:Invitation a la Waltze
O:Wallonie
M:3/8
L:1/16
R:valse
Q:C8=30
K:C
eg |: fg eg df | eg c2 eg | df G2 Bd | ce G2 eg |
fg eg df | eg c2 eg | df G2 Bd | c2 z2 eg :|
|: df G2 Bd | ce G2 eg | df G2 Bd | ce G2 eg |
fg eg df | eg c2 eg | df G2 Bd |1 c2 z2 eg :|2 c4 ||
